X:1
T:Title
%%score { ( 1 4 ) | ( 2 3 ) }
L:1/8
M:6/4
K:F
V:1 treble nm="Grand Piano"
V:4 treble 
V:2 bass 
V:3 bass 
V:1
 z6 z4[Q:1/4=114] [CA]2 | [CA] A3 A2 [CA] A3 A2 | [EB]4 [DB]2 [CB]4 [EB]2 | %3
 [EB]2 B2 B2 [CB]2 B2 B2 | [DB]4 [CA]2 [CA]4 [Ac]2 | [Ac]2 =B2 c2 [FA] A3 A2 | %6
 [DB]4 [Fc]2 [Fd]4 [Bd]2 | [Bd]2 c2 A2 [Ec] G3 c2 |[M:5/4] [D=B]2 c2 d2 [Ec]4 |[M:1/4] [CGB]2 | %10
[M:6/4] [CFA]4 [CFA]2 [CFA]4 [CFA]2 |[M:5/4] [CEB]2- [CEB]2- [CEB]6 |[M:1/4] [CEB]2 | %13
[M:6/4] [CEB]4 [CEB]2 [CEB]2 [CFA]2 [CGB]2 | c12[K:bass][K:treble] | A .A3 A2 A .A3 [FA]2 | %16
 [FB]2 [FB]2 [Fc]2 [Fd]4 [Fd]2 |[M:13/8] d2 c2 A2 [Ec]2 [EG]3 [Ec]2 |[M:5/4] [Ec]2 [EB]2 G2 F4 |] %19
V:2
 z6 z4 [F,,F,]2 | z[K:treble] F3 F2[K:bass] z[K:treble] F3 F2 | [C,,C,]6 [C,,C,]6 | %3
 z2 E2 D2 z2 D2 E2 | [F,,F,]6 .[F,,F,]6 | z2[K:treble] _A2 =A2[K:bass] z F3 _E2 | %6
 [B,,F,]6 [B,,B,]6 | z2[K:treble] A2 F2[K:bass] z E3 E2 |[M:5/4] z2 E2 F2 [C,G,]4 |[M:1/4] C,2 | %10
[M:6/4] F,4 C,2 F,4 C,2 |[M:5/4] G,4 E,2 C,4 |[M:1/4] G,2 |[M:6/4] G,4 E,2 C,2 D,2 E,2 | %14
 [A,F]6- [A,F]4 [F,CF]2 | [F,CF] .[F,CF]3[K:bass] [F,CF]2 [F,CF] .[F,CF]3 [_E,C]2 | %16
 [D,B,]2 [D,B,]2 [C,A,]2 [B,,B,]4 [B,,B,]2 | %17
[M:13/8] [F,B,F]2 [F,A,F]2 [F,A,F]2 [C,G,]2 [C,C]3 [C,G,]2 | %18
[M:5/4] [C,G,]2 [C,C]2 [C,B,C]2 [F,A,C]4 |] %19
V:3
 x12 | [F,,F,]6[K:treble][K:bass] [F,,F,]6[K:treble] | x12 | [C,,C,]6 [C,,C,]6 | x12 | %5
 [F,,F,]6[K:treble][K:bass] [F,,F,]6 | x12 | [F,,F,]6[K:treble][K:bass] [C,,C,]6 | %8
[M:5/4] [G,,G,]6 z4 |[M:1/4] x2 |[M:6/4] x12 |[M:5/4] x10 |[M:1/4] x2 |[M:6/4] x12 | .F,6 z6 | %15
 x4[K:bass] x8 | x12 |[M:13/8] x13 |[M:5/4] x10 |] %19
V:4
 x12 | x12 | x12 | x12 | x12 | x12 | x12 | x12 |[M:5/4] x10 |[M:1/4] x2 |[M:6/4] x12 |[M:5/4] x10 | %12
[M:1/4] x2 |[M:6/4] x12 | z4[K:bass] F,2 F,4[K:treble] A2 | x12 | x12 |[M:13/8] x13 |[M:5/4] x10 |] %19

